pretzel/src/assets/images/instagram-logo.svg

<svg width="21" height="21" viewBox="0 0 21 21" fill="none" xmlns="http://www.w3.org/2000/svg">
<path opacity="0.4" fill-rule="evenodd" clip-rule="evenodd" d="M10.7075 0.328125C7.94506 0.328125 7.59839 0.340204 6.51343 0.389578C5.43059 0.439163 4.69147 0.610595 4.04473 0.862126C3.37575 1.12192 2.80826 1.46945 2.2429 2.03502C1.67711 2.60039 1.32959 3.16787 1.06895 3.83664C0.816778 4.48359 0.645135 5.22293 0.596397 6.30534C0.547871 7.39029 0.535156 7.73718 0.535156 10.4996C0.535156 13.262 0.547447 13.6076 0.596609 14.6926C0.646407 15.7754 0.817838 16.5145 1.06916 17.1613C1.32917 17.8302 1.67669 18.3977 2.24227 18.9631C2.80742 19.5289 3.3749 19.8772 4.04346 20.137C4.69062 20.3886 5.42996 20.56 6.51258 20.6096C7.59754 20.659 7.944 20.671 10.7062 20.671C13.4688 20.671 13.8144 20.659 14.8994 20.6096C15.9822 20.56 16.7222 20.3886 17.3693 20.137C18.0381 19.8772 18.6047 19.5289 19.1699 18.9631C19.7357 18.3977 20.0832 17.8302 20.3439 17.1615C20.5939 16.5145 20.7655 15.7752 20.8164 14.6928C20.8651 13.6078 20.8779 13.262 20.8779 10.4996C20.8779 7.73718 20.8651 7.39051 20.8164 6.30555C20.7655 5.22271 20.5939 4.48359 20.3439 3.83685C20.0832 3.16787 19.7357 2.60039 19.1699 2.03502C18.6041 1.46924 18.0383 1.12171 17.3687 0.862126C16.7203 0.610595 15.9807 0.439163 14.8979 0.389578C13.8129 0.340204 13.4675 0.328125 10.7043 0.328125H10.7075ZM9.79491 2.1627C10.0657 2.16228 10.3679 2.1627 10.7074 2.1627C13.4231 2.1627 13.745 2.17245 14.8175 2.22118C15.8092 2.26653 16.3474 2.43224 16.706 2.57146C17.1807 2.75582 17.5191 2.9762 17.8749 3.3322C18.2309 3.68821 18.4512 4.02725 18.636 4.50192C18.7752 4.86004 18.9412 5.39828 18.9863 6.39C19.035 7.46224 19.0456 7.78434 19.0456 10.4988C19.0456 13.2134 19.035 13.5354 18.9863 14.6077C18.941 15.5994 18.7752 16.1376 18.636 16.4958C18.4517 16.9704 18.2309 17.3084 17.8749 17.6642C17.5189 18.0202 17.1809 18.2406 16.706 18.4249C16.3479 18.5648 15.8092 18.7301 14.8175 18.7754C13.7452 18.8242 13.4231 18.8348 10.7074 18.8348C7.99138 18.8348 7.6695 18.8242 6.59726 18.7754C5.60554 18.7297 5.0673 18.564 4.70854 18.4247C4.23388 18.2404 3.89483 18.02 3.53883 17.664C3.18282 17.308 2.96244 16.9698 2.77766 16.4949C2.63844 16.1368 2.47252 15.5986 2.42738 14.6068C2.37864 13.5346 2.3689 13.2125 2.3689 10.4963C2.3689 7.7801 2.37864 7.4597 2.42738 6.38746C2.47273 5.39574 2.63844 4.8575 2.77766 4.49896C2.96202 4.02429 3.18282 3.68524 3.53883 3.32924C3.89483 2.97324 4.23388 2.75286 4.70854 2.56807C5.06709 2.42822 5.60554 2.26293 6.59726 2.21737C7.53557 2.17499 7.8992 2.16228 9.79491 2.16016V2.1627ZM16.1366 3.85199C15.4627 3.85199 14.916 4.39807 14.916 5.07214C14.916 5.746 15.4627 6.29271 16.1366 6.29271C16.8104 6.29271 17.3572 5.746 17.3572 5.07214C17.3572 4.39828 16.8104 3.85156 16.1366 3.85156V3.85199ZM10.7069 5.27734C7.8222 5.27734 5.4834 7.61614 5.4834 10.5008C5.4834 13.3855 7.8222 15.7232 10.7069 15.7232C13.5915 15.7232 15.9295 13.3855 15.9295 10.5008C15.9295 7.61614 13.5913 5.27734 10.7067 5.27734H10.7069ZM10.7069 7.10938C12.5793 7.10938 14.0974 8.62725 14.0974 10.4999C14.0974 12.3723 12.5793 13.8903 10.7069 13.8903C8.83428 13.8903 7.31641 12.3723 7.31641 10.4999C7.31641 8.62725 8.83428 7.10938 10.7069 7.10938Z" fill="white"/>
</svg>

<svg width="21" height="21" fill="none" xmlns="http://www.w3.org/2000/svg"><path opacity=".4" fill-rule="evenodd" clip-rule="evenodd" d="M10.707.328C7.945.328 7.598.34 6.513.39 5.431.44 4.691.61 4.045.862a4.98 4.98 0 0 0-1.802 1.173 4.993 4.993 0 0 0-1.174 1.802C.817 4.484.645 5.223.596 6.305.548 7.39.536 7.737.536 10.5c0 2.762.011 3.108.06 4.193.05 1.082.222 1.822.473 2.468.26.67.608 1.237 1.173 1.802a4.98 4.98 0 0 0 1.801 1.174c.648.252 1.387.423 2.47.473 1.085.049 1.431.061 4.193.061 2.763 0 3.108-.012 4.193-.061 1.083-.05 1.823-.221 2.47-.473a4.977 4.977 0 0 0 1.8-1.174 4.995 4.995 0 0 0 1.175-1.802c.25-.646.421-1.386.472-2.468.05-1.085.062-1.431.062-4.193 0-2.763-.013-3.11-.062-4.194-.05-1.083-.222-1.822-.472-2.47a4.993 4.993 0 0 0-1.174-1.801A4.971 4.971 0 0 0 17.369.862C16.72.611 15.98.44 14.898.39c-1.085-.05-1.43-.062-4.194-.062h.003zm-.912 1.835h.912c2.716 0 3.038.01 4.11.058.992.046 1.53.211 1.889.35.475.185.813.405 1.169.761.356.356.576.695.761 1.17.14.358.305.896.35 1.888.049 1.072.06 1.394.06 4.109 0 2.714-.011 3.036-.06 4.109-.045.991-.21 1.53-.35 1.888a3.145 3.145 0 0 1-.761 1.168 3.145 3.145 0 0 1-1.169.76c-.358.14-.897.306-1.888.351-1.073.05-1.395.06-4.11.06-2.717 0-3.038-.01-4.11-.06-.992-.045-1.53-.211-1.89-.35a3.15 3.15 0 0 1-1.17-.761 3.152 3.152 0 0 1-.76-1.17c-.14-.357-.305-.895-.35-1.887-.05-1.072-.06-1.394-.06-4.11 0-2.717.01-3.037.06-4.11.045-.991.21-1.53.35-1.888.184-.475.405-.814.76-1.17a3.157 3.157 0 0 1 1.17-.76c.36-.14.898-.306 1.89-.352.938-.042 1.301-.055 3.197-.057v.003zm6.342 1.689a1.22 1.22 0 1 0 0 2.442 1.22 1.22 0 0 0 0-2.442zm-5.43 1.425a5.224 5.224 0 1 0 0 10.448 5.224 5.224 0 0 0 0-10.448zm0 1.832a3.39 3.39 0 1 1 0 6.781 3.39 3.39 0 0 1 0-6.78z" fill="#fff"/></svg>
